X:113
T: Ach, herzigs Herz!
N: A0132
O: Europa, Mitteleuropa, Deutschland
N: H. Finck 1536 No. 8 und Forster II. 1540 No. 7. Jon., Anfang aeol.
R: Romanze, Ballade, Lied
M: 4/2
L: 1/4
K: F
A4 | c6d2 | e4e4 | A4z2
f2 | e4d4 | c4A2c2 | dBA2G4 | F4z2
c2 | d4c2f2- | f2e2d4 | c4z2
f2 | f4f4 | e4z2d2 | c3AB4 | A4z2
f2 | e2d2c2B2 | A4G4 | F8

